**kern	**kern	**dynam
*part1	*part1	*part1
*staff2	*staff1	*
*I"Piano	*	*
*clefF4	*clefG2	*
*k[b-e-]	*k[b-e-]	*
=1	=1	=1
*	*^	*
2CC 2C	8r	8r	sf
.	(4b-	(8g	.
.	.	4c 4e-	.
.	4a	.	.
4CC#X 4C#X	.	4B-) 4en	.
.	8g)	.	.
=	=	=	=
(4DD	8r	8r	[
.	(4g	8dL	.
4D	.	8A	.
.	8f#X)	8cnJ	.
*	*v	*v	*
*	*clefF4	*
4DD)	8r	.
.	8F#X 8d	.
=	=	=
(4GGG	8r	.
.	8F#X 8c	.
4GG)	8r	.
.	8G 8B-	.
4r	4r;	[
*	*clefG2	*
=	=	=
*	*^	*
(2EE-	(4b-	2G	p
!	!	!	!LO:DY:a
.	4g	.	<
[4GG	4d	[4B-	.
=	=	=	=
!	!	!	!LO:DY:a
4GG]	2f	4B-]	[ >
2C)	.	2G	.
.	4e-)	.	]
=	=	=	=
2.AAn 2.F	(8ccL	2.c 2.e-	] sf
.	8a	.	.
.	8en	.	.
.	[8g	.	.
.	8g]	.	.
.	[8fJ	.	.
*	*v	*v	*
=	=	=
2.BB- 2.F 2.A-X	8fL]	.
.	8d	.
.	8An	.
.	[8c	.
.	8c]	.
.	8B-J)	.
=	=	=
*-	*-	*-
!!!system-decoration: {(s1,s2)}
